dist/svg/u1F45A.svg

<?xml version="1.0" encoding="UTF-8"?><svg id="a" xmlns="http://www.w3.org/2000/svg" viewBox="0 0 40 40"><path d="M38.266,10.823l-6.036-5.18c-1.322-1.135-3.007-1.758-4.749-1.758h-2.337c-.198,0-.351,.157-.366,.354-.181,2.48-2.251,4.436-4.777,4.436s-4.596-1.956-4.777-4.436c-.014-.198-.168-.354-.366-.354h-2.337c-1.742,0-3.427,.624-4.749,1.758L1.734,10.822c-.243,.209-.305,.561-.147,.84l4.169,7.382c.184,.325,.598,.438,.921,.251l2.751-1.594c.173-.101,.391,.025,.391,.225v17.295c0,.494,.401,.895,.895,.895H29.286c.494,0,.895-.401,.895-.895V17.926c0-.2,.217-.326,.391-.225l2.751,1.594c.323,.187,.738,.075,.921-.251l4.169-7.382c.158-.279,.096-.631-.147-.84Z" fill="#ff9000"/><rect width="40" height="40" fill="none"/></svg>

<svg id="Layer_1" data-name="Layer 1" xmlns="http://www.w3.org/2000/svg" viewBox="0 0 40 40"><defs><style>.cls-1{fill:#ff9000;}.cls-2{fill:none;}</style></defs><path class="cls-1" d="M38.266,10.823,32.229,5.642A7.293,7.293,0,0,0,27.48,3.884H25.143a.372.372,0,0,0-.366.354,4.79,4.79,0,0,1-9.554,0,.372.372,0,0,0-.366-.354H12.52A7.3,7.3,0,0,0,7.771,5.642l-6.037,5.18a.672.672,0,0,0-.147.84l4.169,7.382a.671.671,0,0,0,.922.251L9.429,17.7a.26.26,0,0,1,.391.225V35.221a.9.9,0,0,0,.894.9H29.286a.9.9,0,0,0,.894-.9V17.926a.26.26,0,0,1,.391-.225L33.322,19.3a.671.671,0,0,0,.922-.251l4.169-7.382A.67.67,0,0,0,38.266,10.823Z"/><rect class="cls-2" width="40" height="40"/></svg>
